X: 51
T:Winter Ducks
R:Jig
Z:Added by Alf Warnock, named by Charles de Lint
M:6/8
L:1/8
K:G
D|GFG AGA|B2g gdB|GAB c2A|BGE EDE|
GFG AGA|B2g gdB|cBA (3Bcd B|AGF G2:|
d|gfg efg|eag fed|gfg efg|afd df|
gfe agf|gfe edB|cBA (3Bcd B|AGF G2:|

